svgs/tasks.svg

<svg xmlns="http://www.w3.org/2000/svg" viewBox="0 0 24 24"><path d="m10.95 18 5.65-5.65-1.45-1.45-4.225 4.225-2.1-2.1L7.4 14.45zM6 22c-.55 0-1.02-.196-1.412-.587A1.927 1.927 0 0 1 4 20V4c0-.55.196-1.021.588-1.413A1.925 1.925 0 0 1 6 2h8l6 6v12a1.93 1.93 0 0 1-.587 1.413A1.928 1.928 0 0 1 18 22zm7-13h5l-5-5z"/></svg>

<svg width="24" height="24" viewBox="0 0 24 24" fill="none" xmlns="http://www.w3.org/2000/svg">
<path d="M10.95 18L16.6 12.35L15.15 10.9L10.925 15.125L8.825 13.025L7.4 14.45L10.95 18ZM6 22C5.45 22 4.97933 21.8043 4.588 21.413C4.196 21.021 4 20.55 4 20V4C4 3.45 4.196 2.979 4.588 2.587C4.97933 2.19567 5.45 2 6 2H14L20 8V20C20 20.55 19.8043 21.021 19.413 21.413C19.021 21.8043 18.55 22 18 22H6ZM13 9H18L13 4V9Z" fill="#FFF1C0"/>
</svg>
